X: 1
T: Crooked Bawbee, The
M: 3/4
L: 1/8
R: waltz
K: Gmaj
B2A | {D}G3 B d2 | {b}"a"g3 f e2 | {e}"a"d3 A c2 | c "a"B3 {e}d2 |
G3 B {e}d2 | c2 e2 {a}g2 | {A}B3 c A2 | {F}G4 D2 |
{e}B3 A G2 | {F}G3 A B2 | {ed}"m"c3 d e2 | d "a"B3 {e}d2 |
"a"{b}g3 c e2 | {e}"m"d4 GA | {f}B3 c A2 | {F}G4 D2 |
{e}"a"B3 A B2 | {f}"m"c3B c2 | {g}"a"f3 e d2 | {e}d "a"B3 G2 |
{E}G3 F G2 | {D}G3 F G2 | {edc}"a"B3 A G2 | {G}"P(F#)"A4 GA |
{gA}"a"B3 A B2 | {f}"m"c3 B c2 | {de}"c"f3 e d2 | {e}d "a"B3 G |
E G3 {A}G2 | D G3 {A}G2 | F A3 F2 | {FA}G4 |]


